img/estonian_legal_entity_service.svg

<?xml version="1.0" encoding="utf-8"?>
<!-- Generator: Adobe Illustrator 25.3.1, SVG Export Plug-In . SVG Version: 6.00 Build 0)  -->
<svg version="1.1" id="Layer_1" xmlns="http://www.w3.org/2000/svg" xmlns:xlink="http://www.w3.org/1999/xlink" x="0px" y="0px"
	 viewBox="0 0 1024 768" style="enable-background:new 0 0 1024 768;" xml:space="preserve">
<style type="text/css">
	.st0{fill:#075985;}
	.st1{fill-rule:evenodd;clip-rule:evenodd;fill:#FFDE16;}
	.st2{fill:#FFDE16;stroke:#000000;stroke-miterlimit:10;}
	.st3{fill:none;stroke:#FACC15;stroke-width:5;stroke-miterlimit:10;}
	.st4{fill:#FFFFFF;}
	.st5{opacity:0.12;}
	.st6{fill:none;}
</style>
<path class="st0" d="M1024,0v647.1c-38.3-1.6-79.4,48.6-114.3,40c-72-17.7-45.9-96.4-92-111.8C736.3,547.9,758,676.7,633.2,714
	c-136.8,27.8-243.5-91.1-270.7-14c-20.5,58.2-60.7,84.7-140.8,52.7C134,717.7,128,652.3,0,721.1V0H1024z"/>
<path class="st1" d="M750.8,1291.5"/>
<path class="st2" d="M717.1-512.5"/>
<path class="st2" d="M952.9-512.1"/>
<path class="st3" d="M0,305.4c44.2,19.6,66,14.8,76-4.3c10.6-20.4,7.1-57,3.2-96.8C75,161,70.4,113.9,83.4,80.4
	c17-44.1,64.9-64.5,185.7-21c32.8,11.9,67,22,101.5,29.6c82.2,18.1,166.1,21.8,237.4,0.3C659.3,73.9,704,45.4,737.1,0"/>
<path class="st2" d="M419.2-298.8"/>
<path class="st2" d="M422.1-394"/>
<path class="st2" d="M426.4-519.1"/>
<path class="st2" d="M616-541.9"/>
<g>
	<path class="st4" d="M484.2,355.5c-0.3,1.1-0.9,2-1.9,2.6c-0.2,0.1-0.4,0.3-0.7,0.4l-52.7,22.4c-1.1,0.5-2.3,0.5-3.4,0
		c-1.1-0.4-1.9-1.3-2.4-2.4s-0.5-2.3,0-3.4c0.4-1.1,1.3-1.9,2.4-2.4l47.3-20.1l-74-93.2l-42.7-16.2l9.2,11.5
		c7.7,9.5,14.2,18.5,19.4,26.5c17.6,27,26.2,49.3,26.5,68.1c0,1.2-0.4,2.3-1.2,3.1c-0.8,0.8-1.9,1.3-3.1,1.3s-2.3-0.4-3.1-1.2
		c-0.8-0.8-1.3-1.9-1.3-3.1c-0.2-16.8-8.6-38.2-25-63.4c-20.2-31-59-73.4-99-108.1c-19.4-16.9-37.4-30.4-52-39.1
		c-19.1-11.4-26.7-11.2-29.1-10.5l-1.2,0.3l-0.8,1c-1.6,1.9-4.9,8.8-2.2,30.9c2.1,16.9,7.2,38.8,14.7,63.4
		c15.5,50.5,38.6,103.2,58.8,134.2c16.9,25.9,33.4,42.4,49.1,49.1c1.1,0.5,1.9,1.3,2.4,2.4c0.4,1.1,0.4,2.3,0,3.4
		c-0.3,0.8-0.9,1.5-1.6,2c-1.2,0.8-2.8,0.9-4.1,0.4c-17.6-7.5-35-24.7-53-52.4c-4.8-7.4-9.9-16.3-15.2-26.3l-6.8-12.9l-2.2,42.4
		l55.3,105.4l37.5-35.2c0.9-0.8,2-1.2,3.2-1.2s2.3,0.5,3.1,1.4c0.8,0.9,1.2,2,1.2,3.2s-0.5,2.3-1.4,3.1L292.4,482
		c-0.2,0.2-0.4,0.3-0.6,0.5l0,0c-0.9,0.6-2,0.8-3.1,0.7c-1.3-0.2-2.5-1.1-3.2-2.3L227,369.4c-0.4-0.7-0.5-1.5-0.5-2.3l3.2-60.6
		l-0.4-0.9c-11.6-26-22-54-30.2-81c-7.7-25.4-12.8-47.9-14.7-65.1c-2.3-20.8,0.1-33.2,7.3-37.8c2.2-1.5,5-2.2,8.2-2.2
		c7.2,0,16.9,3.6,29.4,10.8c14.9,8.7,33.5,22.4,53.6,39.8c20.7,17.8,41.5,38.1,60.2,58.5l0.8,0.9l1.3,0.3c0.2,0,0.4,0.1,0.5,0.1
		l57.6,21.9c0.7,0.3,1.4,0.8,1.9,1.4l78.3,98.7C484.2,352.8,484.5,354.2,484.2,355.5z"/>
	<path class="st4" d="M326.9,260c-0.2,1.2-0.8,2.2-1.8,2.8l-0.2,0.1c-2,1.3-4.6,0.8-6-1.1c-1.5-2-3-4.1-4.5-6.1
		c-0.7-0.9-1-2.1-0.9-3.3c0.2-1.2,0.8-2.2,1.7-2.9c0.8-0.6,1.7-0.9,2.7-0.9c1.3,0,2.6,0.6,3.5,1.7c1.6,2.1,3.2,4.2,4.7,6.3
		C326.8,257.6,327.1,258.8,326.9,260z"/>
	<path class="st4" d="M303,230.5c0,1.2-0.5,2.3-1.4,3.1c-0.2,0.2-0.4,0.4-0.6,0.5c-1.8,1.2-4.1,0.9-5.6-0.7
		c-31.2-33-66.5-56.2-66.9-56.4c-2-1.3-2.6-4.1-1.3-6.1c0.8-1.3,2.3-2,3.7-2c0.8,0,1.7,0.2,2.4,0.7c1.5,1,36.3,23.7,68.5,57.8
		C302.6,228.2,303,229.4,303,230.5z"/>
	<path class="st4" d="M396.2,421.8c-0.2,1.2-0.9,2.1-1.9,2.8c-1,0.6-2.2,0.9-3.3,0.6c-1.1-0.2-2.1-0.9-2.8-1.9l-2.5-3.8
		c-1.3-2-0.7-4.8,1.3-6.1c2-1.3,4.8-0.7,6.1,1.3l2.5,3.8C396.3,419.5,396.5,420.7,396.2,421.8z"/>
	<path class="st4" d="M376,396.4c-2,1.3-4.8,0.7-6.1-1.3L332,336.9c-0.7-1-0.9-2.2-0.6-3.3c0.2-1.2,0.9-2.1,1.9-2.8
		c0.7-0.5,1.6-0.7,2.4-0.7c1.4,0,2.8,0.7,3.7,2l37.9,58.2C378.6,392.4,378,395.1,376,396.4z"/>
	<path class="st4" d="M409,484.6c-0.7,1-1.7,1.6-2.9,1.7c-1.2,0.2-2.3-0.1-3.3-0.8c-18.3-13.6-43.4-14.4-62.6-2
		c-13.7,8.9-22.6,23.3-24.5,39.5c-0.2,1.3-0.8,2.4-1.9,3.1c-1,0.7-2.4,0.9-3.6,0.6c-6.9-1.8-14.2-0.6-20.1,3.3
		c-11.6,7.6-14.9,23.2-7.4,34.9c0.3,0.5,0.7,1,1,1.5l2.4,3.2l3.2-2.3c4.7-3.5,9.3-5.8,12.7-7.2s5.6-2,5.6-2c1.1-0.3,2.3-0.1,3.3,0.5
		s1.7,1.5,2,2.7c0.5,1.8-0.3,3.8-1.9,4.8c-0.4,0.2-0.8,0.4-1.3,0.6s-12.5,3.6-22.4,14.1l-0.3,0.4c-10.4,14-11,33.2-1.5,47.8
		c0.7,1,0.9,2.2,0.6,3.3c-0.2,1.2-0.9,2.1-1.9,2.8c-2,1.3-4.8,0.7-6.1-1.3c-2.1-3.3-3.9-6.9-5.2-10.6l-1.1-3l-3.1,0.3
		c-6.2,0.7-12.2,2.8-17.5,6.2c-8.9,5.8-15,14.7-17.2,25.1c-2.2,10.4-0.2,21,5.6,29.9c4.5,7,11,12.3,18.8,15.3c1.1,0.4,2,1.3,2.4,2.3
		c0.5,1.1,0.5,2.3,0.1,3.4c-0.3,0.9-0.9,1.6-1.7,2.1c-1.2,0.8-2.7,0.9-4,0.4c-9.4-3.7-17.4-10.2-22.9-18.7
		c-14.6-22.5-8.2-52.6,14.2-67.2c6.1-4,12.8-6.5,20.1-7.4l3.6-0.5l-0.1-3.6c-0.3-10.6,2.5-20.8,8.2-29.5l1.7-2.5l-2-2.3
		c-1-1.1-1.9-2.3-2.7-3.6c-10.2-15.7-5.8-36.8,10-47.1c5.5-3.6,11.9-5.5,18.6-5.5c0.2,0,0.4,0,0.6,0l3.2,0.1l0.8-3.1
		c3.9-15.6,13.5-29.1,27-37.9c8.7-5.7,18.9-9.1,29.5-10l6.7-0.6l-35.8-55c-1.3-2-0.7-4.8,1.3-6.1c2-1.3,4.8-0.8,6.1,1.3l40,61.5
		l1.6,0.4c8.6,2,16.4,5.6,23.3,10.8C410.1,479.8,410.5,482.6,409,484.6z"/>
	<path class="st4" d="M690.1,422.1c-0.1,1.4-0.8,2.7-2,3.5c-0.8,0.5-1.7,0.7-2.6,0.7c-1.2,0-2.3-0.5-3-1.4c-0.8-0.9-1.2-2-1.2-3.2
		c0.3-8.3-1.9-16.4-6.4-23.4c-5.8-8.9-14.7-15-25.1-17.2c-10.4-2.2-21-0.2-29.9,5.6c-0.8,0.5-1.6,1.1-2.2,1.6l-4.1,3.1l3.9,3.2
		c4,3.3,7.5,7.2,10.3,11.5c1.3,2,0.8,4.8-1.3,6.1c-1,0.6-2.2,0.9-3.3,0.6c-1.2-0.2-2.1-0.9-2.8-1.9c-10.3-15.8-30-22.8-48.1-17
		c-14.1,4.9-22.2,14.8-22.3,14.9c-0.3,0.4-0.6,0.7-1,0.9c-1.6,1-3.7,1-5.2-0.2c-1.9-1.5-2.2-4.3-0.7-6.2c0.1-0.1,6.8-8.5,18.9-14.6
		l3.9-2l-2.2-3.7l-0.1-0.2c-0.1-0.2-0.2-0.4-0.3-0.6c-3.7-5.6-9.3-9.5-15.9-10.9c-6.6-1.4-13.3-0.1-19,3.5
		c-5.9,3.8-10,10.1-11.1,17.1c-0.2,1.3-0.9,2.4-2,3c-1.1,0.7-2.4,0.8-3.6,0.5c-15.6-4.8-32.4-2.5-46,6.4
		c-18.4,12-27.8,33.7-24.1,55.3c0.2,1.2-0.1,2.3-0.7,3.3c-0.7,1-1.7,1.6-2.8,1.8c-1.2,0.2-2.3-0.1-3.3-0.7c-1-0.7-1.6-1.7-1.8-2.8
		c-1.1-6.4-1.2-12.9-0.3-19.4l0.2-1.8l-1.3-1.4c-0.2-0.2-0.4-0.4-0.5-0.5l-39.7-61.1c-0.6-1-0.9-2.2-0.6-3.3
		c0.2-1.1,0.9-2.1,1.9-2.8c0.7-0.5,1.5-0.7,2.4-0.7c0.3,0,0.6,0,0.9,0.1c1.1,0.2,2.1,0.9,2.8,1.9l36.7,56.4l3.1-6.3
		c5.1-10.3,12.8-19,22.3-25.2c13.5-8.8,29.7-12.1,45.6-9.3l3.1,0.5l1.2-2.9c2.7-6.3,7.1-11.6,12.8-15.3c15.7-10.2,36.8-5.8,47,10
		c0.8,1.2,1.6,2.5,2.2,3.9l1.3,2.7l3-0.5c8.7-1.4,17.8-0.5,26.2,2.7l2.4,0.9l1.8-1.8c2.4-2.4,5-4.4,7.6-6.1
		c22.5-14.6,52.6-8.2,67.2,14.2C687.8,402.1,690.5,411.9,690.1,422.1z"/>
	<path class="st4" d="M642.1,488.6c-1.7,1.7-4.5,1.7-6.2,0c-4.1-4-10.2-5-15.3-2.4s-8,8.1-7.1,13.7c0.2,1.2-0.1,2.3-0.8,3.3
		c-0.7,0.9-1.7,1.6-2.9,1.7c-0.2,0-0.5,0.1-0.7,0c-2.2,0-4-1.6-4.3-3.8c-0.8-5.7,0.6-11.5,4-16.2l1.1-1.5l-0.5-1.8
		c-6-22.4-28.5-36.1-51.2-31.2c-15,3.3-27.2,14.3-32,28.9l-1.2,3.5l3.4,1.4c14.7,6.2,23.8,21,22.5,36.9c-0.2,2.3-2.2,4.1-4.5,4.1
		c-0.1,0-0.2,0-0.3,0c-2.4-0.2-4.2-2.3-4-4.7c0.6-7.4-1.8-14.7-6.6-20.4c-4.8-5.7-11.6-9.2-19-9.8c-7.4-0.6-14.7,1.7-20.4,6.6
		c-5.7,4.8-9.2,11.6-9.8,19c-0.1,1.2-0.6,2.2-1.5,3s-2,1.1-3.2,1c-2.4-0.2-4.2-2.3-4-4.7c1.5-18.9,16.9-33.4,35.8-33.8l2.9-0.1
		l0.8-2.8c5.3-18.5,20.3-32.6,39.1-36.7c14.4-3.1,29,0.1,40.5,8c8.6,5.8,15.5,14.2,19.4,24.4l1.3,3.4l3.5-0.9
		c7.5-2,15.6,0.2,21.1,5.7C643.8,484.1,643.8,486.9,642.1,488.6z"/>
</g>
<g>
	<g class="st5">
		<rect x="812.7" y="36.4" width="115.8" height="25.7"/>
		<path d="M960.3,267.5v25.9c-65.8,2-128.9,25.1-179.6,66.5C825.8,306.2,890.3,273.5,960.3,267.5z"/>
		<path d="M921.8,113.5v143.2c-8.7,2.5-17.2,5.4-25.6,8.9V139.2h-12.8v132.2c-8.8,4.3-17.4,9.2-25.6,14.7V139.2h-12.8v156.1
			c-9.2,7-17.7,14.6-25.6,22.8V113.5H921.8z"/>
		<path d="M986.4,113.9c0,21.5-17.4,38.9-38.8,38.9v-25.7c7.3,0,13.2-5.9,13.2-13.2s-5.9-13.2-13.2-13.2H793.6
			c-7.3,0-13.2,5.9-13.2,13.2s5.9,13.2,13.2,13.2v25.7c-21.5,0-38.8-17.4-38.8-38.9S772.1,75,793.6,75c94.3,0,59.6,0,153.9,0
			C969,74.9,986.4,92.4,986.4,113.9z"/>
	</g>
	<rect x="717.1" class="st6" width="306.9" height="396.3"/>
</g>
</svg>

<svg width="800" height="800" viewBox="0 0 800 800" fill="none" xmlns="http://www.w3.org/2000/svg">
<g clip-path="url(#clip0_1_28)">
<path d="M800 0V675.438C770.078 673.768 737.969 726.167 710.703 717.19C654.453 698.715 674.844 616.568 638.828 600.494C575.234 571.894 592.188 706.335 494.688 745.268C387.813 774.286 304.453 650.179 283.203 730.655C267.188 791.404 235.781 819.064 173.203 785.663C104.688 749.13 100 680.866 0 752.679V0H800Z" fill="#226679"/>
<path d="M0 305.4C44.2 325 66 320.2 76 301.1C86.6 280.7 83.1 244.1 79.2 204.3C75 161 70.4 113.9 83.4 80.4C100.4 36.3 148.3 15.9 269.1 59.4C301.9 71.3 336.1 81.4 370.6 89C452.8 107.1 536.7 110.8 608 89.3C659.3 73.9 704 45.4 737.1 0" stroke="#FACC15" stroke-width="5" stroke-miterlimit="10"/>
<path d="M484.2 355.5C483.9 356.6 483.3 357.5 482.3 358.1C482.1 358.2 481.9 358.4 481.6 358.5L428.9 380.9C427.8 381.4 426.6 381.4 425.5 380.9C424.4 380.5 423.6 379.6 423.1 378.5C422.6 377.4 422.6 376.2 423.1 375.1C423.5 374 424.4 373.2 425.5 372.7L472.8 352.6L398.8 259.4L356.1 243.2L365.3 254.7C373 264.2 379.5 273.2 384.7 281.2C402.3 308.2 410.9 330.5 411.2 349.3C411.2 350.5 410.8 351.6 410 352.4C409.2 353.2 408.1 353.7 406.9 353.7C405.7 353.7 404.6 353.3 403.8 352.5C403 351.7 402.5 350.6 402.5 349.4C402.3 332.6 393.9 311.2 377.5 286C357.3 255 318.5 212.6 278.5 177.9C259.1 161 241.1 147.5 226.5 138.8C207.4 127.4 199.8 127.6 197.4 128.3L196.2 128.6L195.4 129.6C193.8 131.5 190.5 138.4 193.2 160.5C195.3 177.4 200.4 199.3 207.9 223.9C223.4 274.4 246.5 327.1 266.7 358.1C283.6 384 300.1 400.5 315.8 407.2C316.9 407.7 317.7 408.5 318.2 409.6C318.6 410.7 318.6 411.9 318.2 413C317.9 413.8 317.3 414.5 316.6 415C315.4 415.8 313.8 415.9 312.5 415.4C294.9 407.9 277.5 390.7 259.5 363C254.7 355.6 249.6 346.7 244.3 336.7L237.5 323.8L235.3 366.2L290.6 471.6L328.1 436.4C329 435.6 330.1 435.2 331.3 435.2C332.5 435.2 333.6 435.7 334.4 436.6C335.2 437.5 335.6 438.6 335.6 439.8C335.6 441 335.1 442.1 334.2 442.9L292.4 482C292.2 482.2 292 482.3 291.8 482.5C290.9 483.1 289.8 483.3 288.7 483.2C287.4 483 286.2 482.1 285.5 480.9L227 369.4C226.6 368.7 226.5 367.9 226.5 367.1L229.7 306.5L229.3 305.6C217.7 279.6 207.3 251.6 199.1 224.6C191.4 199.2 186.3 176.7 184.4 159.5C182.1 138.7 184.5 126.3 191.7 121.7C193.9 120.2 196.7 119.5 199.9 119.5C207.1 119.5 216.8 123.1 229.3 130.3C244.2 139 262.8 152.7 282.9 170.1C303.6 187.9 324.4 208.2 343.1 228.6L343.9 229.5L345.2 229.8C345.4 229.8 345.6 229.9 345.7 229.9L403.3 251.8C404 252.1 404.7 252.6 405.2 253.2L483.5 351.9C484.2 352.8 484.5 354.2 484.2 355.5Z" fill="white"/>
<path d="M326.9 260C326.7 261.2 326.1 262.2 325.1 262.8L324.9 262.9C322.9 264.2 320.3 263.7 318.9 261.8C317.4 259.8 315.9 257.7 314.4 255.7C313.7 254.8 313.4 253.6 313.5 252.4C313.7 251.2 314.3 250.2 315.2 249.5C316 248.9 316.9 248.6 317.9 248.6C319.2 248.6 320.5 249.2 321.4 250.3C323 252.4 324.6 254.5 326.1 256.6C326.8 257.6 327.1 258.8 326.9 260Z" fill="white"/>
<path d="M303 230.5C303 231.7 302.5 232.8 301.6 233.6C301.4 233.8 301.2 234 301 234.1C299.2 235.3 296.9 235 295.4 233.4C264.2 200.4 228.9 177.2 228.5 177C226.5 175.7 225.9 172.9 227.2 170.9C228 169.6 229.5 168.9 230.9 168.9C231.7 168.9 232.6 169.1 233.3 169.6C234.8 170.6 269.6 193.3 301.8 227.4C302.6 228.2 303 229.4 303 230.5Z" fill="white"/>
<path d="M396.2 421.8C396 423 395.3 423.9 394.3 424.6C393.3 425.2 392.1 425.5 391 425.2C389.9 425 388.9 424.3 388.2 423.3L385.7 419.5C384.4 417.5 385 414.7 387 413.4C389 412.1 391.8 412.7 393.1 414.7L395.6 418.5C396.3 419.5 396.5 420.7 396.2 421.8Z" fill="white"/>
<path d="M376 396.4C374 397.7 371.2 397.1 369.9 395.1L332 336.9C331.3 335.9 331.1 334.7 331.4 333.6C331.6 332.4 332.3 331.5 333.3 330.8C334 330.3 334.9 330.1 335.7 330.1C337.1 330.1 338.5 330.8 339.4 332.1L377.3 390.3C378.6 392.4 378 395.1 376 396.4Z" fill="white"/>
<path d="M409 484.6C408.3 485.6 407.3 486.2 406.1 486.3C404.9 486.5 403.8 486.2 402.8 485.5C384.5 471.9 359.4 471.1 340.2 483.5C326.5 492.4 317.6 506.8 315.7 523C315.5 524.3 314.9 525.4 313.8 526.1C312.8 526.8 311.4 527 310.2 526.7C303.3 524.9 296 526.1 290.1 530C278.5 537.6 275.2 553.2 282.7 564.9C283 565.4 283.4 565.9 283.7 566.4L286.1 569.6L289.3 567.3C294 563.8 298.6 561.5 302 560.1C305.4 558.7 307.6 558.1 307.6 558.1C308.7 557.8 309.9 558 310.9 558.6C311.9 559.2 312.6 560.1 312.9 561.3C313.4 563.1 312.6 565.1 311 566.1C310.6 566.3 310.2 566.5 309.7 566.7C309.2 566.9 297.2 570.3 287.3 580.8L287 581.2C276.6 595.2 276 614.4 285.5 629C286.2 630 286.4 631.2 286.1 632.3C285.9 633.5 285.2 634.4 284.2 635.1C282.2 636.4 279.4 635.8 278.1 633.8C276 630.5 274.2 626.9 272.9 623.2L271.8 620.2L268.7 620.5C262.5 621.2 256.5 623.3 251.2 626.7C242.3 632.5 236.2 641.4 234 651.8C231.8 662.2 233.8 672.8 239.6 681.7C244.1 688.7 250.6 694 258.4 697C259.5 697.4 260.4 698.3 260.8 699.3C261.3 700.4 261.3 701.6 260.9 702.7C260.6 703.6 260 704.3 259.2 704.8C258 705.6 256.5 705.7 255.2 705.2C245.8 701.5 237.8 695 232.3 686.5C217.7 664 224.1 633.9 246.5 619.3C252.6 615.3 259.3 612.8 266.6 611.9L270.2 611.4L270.1 607.8C269.8 597.2 272.6 587 278.3 578.3L280 575.8L278 573.5C277 572.4 276.1 571.2 275.3 569.9C265.1 554.2 269.5 533.1 285.3 522.8C290.8 519.2 297.2 517.3 303.9 517.3C304.1 517.3 304.3 517.3 304.5 517.3L307.7 517.4L308.5 514.3C312.4 498.7 322 485.2 335.5 476.4C344.2 470.7 354.4 467.3 365 466.4L371.7 465.8L335.9 410.8C334.6 408.8 335.2 406 337.2 404.7C339.2 403.4 342 403.9 343.3 406L383.3 467.5L384.9 467.9C393.5 469.9 401.3 473.5 408.2 478.7C410.1 479.8 410.5 482.6 409 484.6Z" fill="white"/>
<path d="M690.1 422.1C690 423.5 689.3 424.8 688.1 425.6C687.3 426.1 686.4 426.3 685.5 426.3C684.3 426.3 683.2 425.8 682.5 424.9C681.7 424 681.3 422.9 681.3 421.7C681.6 413.4 679.4 405.3 674.9 398.3C669.1 389.4 660.2 383.3 649.8 381.1C639.4 378.9 628.8 380.9 619.9 386.7C619.1 387.2 618.3 387.8 617.7 388.3L613.6 391.4L617.5 394.6C621.5 397.9 625 401.8 627.8 406.1C629.1 408.1 628.6 410.9 626.5 412.2C625.5 412.8 624.3 413.1 623.2 412.8C622 412.6 621.1 411.9 620.4 410.9C610.1 395.1 590.4 388.1 572.3 393.9C558.2 398.8 550.1 408.7 550 408.8C549.7 409.2 549.4 409.5 549 409.7C547.4 410.7 545.3 410.7 543.8 409.5C541.9 408 541.6 405.2 543.1 403.3C543.2 403.2 549.9 394.8 562 388.7L565.9 386.7L563.7 383L563.6 382.8C563.5 382.6 563.4 382.4 563.3 382.2C559.6 376.6 554 372.7 547.4 371.3C540.8 369.9 534.1 371.2 528.4 374.8C522.5 378.6 518.4 384.9 517.3 391.9C517.1 393.2 516.4 394.3 515.3 394.9C514.2 395.6 512.9 395.7 511.7 395.4C496.1 390.6 479.3 392.9 465.7 401.8C447.3 413.8 437.9 435.5 441.6 457.1C441.8 458.3 441.5 459.4 440.9 460.4C440.2 461.4 439.2 462 438.1 462.2C436.9 462.4 435.8 462.1 434.8 461.5C433.8 460.8 433.2 459.8 433 458.7C431.9 452.3 431.8 445.8 432.7 439.3L432.9 437.5L431.6 436.1C431.4 435.9 431.2 435.7 431.1 435.6L391.4 374.5C390.8 373.5 390.5 372.3 390.8 371.2C391 370.1 391.7 369.1 392.7 368.4C393.4 367.9 394.2 367.7 395.1 367.7C395.4 367.7 395.7 367.7 396 367.8C397.1 368 398.1 368.7 398.8 369.7L435.5 426.1L438.6 419.8C443.7 409.5 451.4 400.8 460.9 394.6C474.4 385.8 490.6 382.5 506.5 385.3L509.6 385.8L510.8 382.9C513.5 376.6 517.9 371.3 523.6 367.6C539.3 357.4 560.4 361.8 570.6 377.6C571.4 378.8 572.2 380.1 572.8 381.5L574.1 384.2L577.1 383.7C585.8 382.3 594.9 383.2 603.3 386.4L605.7 387.3L607.5 385.5C609.9 383.1 612.5 381.1 615.1 379.4C637.6 364.8 667.7 371.2 682.3 393.6C687.8 402.1 690.5 411.9 690.1 422.1Z" fill="white"/>
<path d="M642.1 488.6C640.4 490.3 637.6 490.3 635.9 488.6C631.8 484.6 625.7 483.6 620.6 486.2C615.5 488.8 612.6 494.3 613.5 499.9C613.7 501.1 613.4 502.2 612.7 503.2C612 504.1 611 504.8 609.8 504.9C609.6 504.9 609.3 505 609.1 504.9C606.9 504.9 605.1 503.3 604.8 501.1C604 495.4 605.4 489.6 608.8 484.9L609.9 483.4L609.4 481.6C603.4 459.2 580.9 445.5 558.2 450.4C543.2 453.7 531 464.7 526.2 479.3L525 482.8L528.4 484.2C543.1 490.4 552.2 505.2 550.9 521.1C550.7 523.4 548.7 525.2 546.4 525.2C546.3 525.2 546.2 525.2 546.1 525.2C543.7 525 541.9 522.9 542.1 520.5C542.7 513.1 540.3 505.8 535.5 500.1C530.7 494.4 523.9 490.9 516.5 490.3C509.1 489.7 501.8 492 496.1 496.9C490.4 501.7 486.9 508.5 486.3 515.9C486.2 517.1 485.7 518.1 484.8 518.9C483.9 519.7 482.8 520 481.6 519.9C479.2 519.7 477.4 517.6 477.6 515.2C479.1 496.3 494.5 481.8 513.4 481.4L516.3 481.3L517.1 478.5C522.4 460 537.4 445.9 556.2 441.8C570.6 438.7 585.2 441.9 596.7 449.8C605.3 455.6 612.2 464 616.1 474.2L617.4 477.6L620.9 476.7C628.4 474.7 636.5 476.9 642 482.4C643.8 484.1 643.8 486.9 642.1 488.6Z" fill="white"/>
</g>
<defs>
<clipPath id="clip0_1_28">
<rect width="800" height="800" fill="white"/>
</clipPath>
</defs>
</svg>
